X:661
%%etbk:tnset id:392,pos:1,rep:3x,ant:
%%etbk:wsite https://thesession.org/tunes/1139
%%etbk:video src:ytube,cde:NViOZ6XN7f8,desc:
%%etbk:pldat 2016-06-13T17:36,2015-12-15T17:38,2015-06-11T18:24,2015-05-18T18:10,2015-04-28T17:45,2015-04-20T18:36,2015-04-15T17:00,2015-04-08T17:27,2015-04-06T15:07,2015-04-03T15:21,2015-03-31T17:02
T: Jim Kelly's
Z: Piano Box Version by Martin Fleischmann
H: Created 2015-03-30 /  Last Modified 2015-06-11
R: reel
M: 4/4
L: 1/8
K: Dmaj
!5!d!4!B|:"D"!3!A!2!FF2 !4!B!5!dAF|!1!D!2!EF!4!A !2!B!1!AB!4!d|"em"!5!eB!1!B2 !2!e!4!g!3!fe|"A"!1!dfed !2!B!3!cdB|
"D"AFF2 BdAF|DEFA BABd|"em"!2!e!4!gfg efd!2!B|"A"!1!A!3!FEF "D"D2:|
A2|:"D"!3!dc!1!de fefg|!5!af!5!bf !5!afdf|"em"!2!e!1!BB2 !5!g!1!BB2|"A"!3!fedf !2!efd!2!B|
"D"AFF2 !1!Az!2!d!3!f|!5!a2bf afdf|"G"g2fg efdB|"A"AFEF "D"D2:||


